!!!COM: Bach, Johann Sebastian
!!!OPR: Joh. Seb. Bachs vierstimmige Choralges‰nge
!!!XEN: Four-part Chorales
!!!OTL: 179. Wenn wir in hˆchsten Nˆten sein
!!!SCT: BWV 432
!!!SCA: Thematisch-systematisches Verzeichnis der musikalischen Werke Johann Sebastian Bach: Bach-Werke-Verzeichnis (Schmieder)
!!!YOR: Bach Gesellschaft Edition xxxix
!!!ENC: Steven Rasmussen
!!!CDT: 1685/3//-1750/7/28/
!!!OCY: Deutschland
!!!YEC: Copyright (c) 1994, 2000 Center for Computer Assisted Research in the Humanities
!!!YEM: Rights to all derivative editions reserved
!!!YEN: United States of America
**kern	**kern	**kern	**kern	**silbe
*I:[BASSO]	*I:[TENORE]	*I:[ALTO]	*I:[SOPRANO]	*I:[SOPRANO]
*>[A,A]	*>[A,A]	*>[A,A]	*>[A,A]	*
*>A	*>A	*>A	*>A	*
*clefF4	*clefGv2	*clefG2	*clefG2	*
*k[f#]	*k[f#]	*k[f#]	*k[f#]	*
*G:	*G:	*G:	*G:	*
*M4/4	*M4/4	*M4/4	*M4/4	*
8GL	4B	4d	4g	Wennso
8F#J	.	.	.	.
=1	=1	=1	=1	=1
8EL	4B	4.e	4g	wirist
8DJ	.	.	.	.
8CL	8AL	.	4a	indas
8DJ	8F#J	8d	.	.
4GG	4G	8dL	4b	h√∂ch-un-
.	.	8eJ	.	.
4D	4A	4f#	8aL	-sten-ser
.	.	.	8bJ	.
=2	=2	=2	=2	=2
8AAL	8AL	8eL	8ccL	N√∂-Trost
8BBJ	8dJ	16gL	8bJ	.
.	.	16f#JJ	.	.
8CL	8cL	8eL	4a	-tenal-
8DJ	16BL	8f#J	.	.
.	16AJJ	.	.	.
4GG;	4B;	4d;	4g;	sein-lein,
8GL	4d	4g	4b	unddass
8F#J	.	.	.	.
=3	=3	=3	=3	=3
4E	8eL	8gL	4cc	wis-wir
.	8d#J	8aJ	.	.
4E	8d#L	8aL	4b	-senzu-
.	8eJ	8gJ	.	.
4E	4c	8f#L	4a	nicht,-sam-
.	.	16eL	.	.
.	.	16d#JJ	.	.
8EL	4B	4e	4g	wo-men
8DJ	.	.	.	.
=4	=4	=4	=4	=4
8CL	4A	4d	8f#L	ausins-
8BBJ	.	.	8gJ	.
8AAL	4B	4d	8.gTL	und-ge-
8GGJ	.	.	.	.
.	.	.	32f#LL	.
.	.	.	32gJJJ	.
4D;	4F#;	4d;	4a;	ein,-mein
4BB	8BL	4f#	4dd	unddich
.	8AJ	.	.	.
=5	=5	=5	=5	=5
8EL	8GL	4e	4cc	fin-an-
8F#J	8AJ	.	.	.
4.G	4B	8dL	4b	-den-ru-
.	.	16c#L	.	.
.	.	16dJJ	.	.
.	4c#	8eL	4a	we--fen,
8F#L	.	16f#L	.	.
.	.	16eJJ	.	.
8BJ	4B	4d	8gL	-derdu
8A	.	.	8f#J	.
=6	=6	=6	=6	=6
8GL	8BL	4d	8.eL	H√ºlf'treu-
8EJ	8GJ	.	.	.
.	.	.	32f#LL	.
.	.	.	32gJJJ	.
4A	4A	4c#	4e	noch-er
4D;	4F#;	4d;	4d;	Rat,Gott,
4D#	4F#	4f#	4b	obum
=7	=7	=7	=7	=7
8EL	8GL	4e	4cc	wirRet-
8F#J	8AJ	.	.	.
4G	4B	4d	4b	gleich-tung
8C#L	(8E	8eL	4a	sor-aus
8D#J	4B)	8f#J	.	.
8EL	.	4g	8gL	-gender
16DnL	8c	.	8aJ	.
16CnJJ	.	.	.	.
=8	=8	=8	=8	=8
8BBL	4d	4g	4b	fr√ºhAngst
8CJ	.	.	.	.
4D	16cLL	4f#	4a	undund
.	16BJ	.	.	.
.	8cJ	.	.	.
4GG;	4B;	4d;	4g;	spat,Not.
==:|!	==:|!	==:|!	==:|!	==:|!
*-	*-	*-	*-	*-
!!!RWG: Key is interpreted using the Humdrum key tool.
!!!END: 1994/08/08
!!!EMD: Converted from MuseData to Humdrum Dec 19, 2000, by Andreas Kornstaedt using muse2kern.
!!!EED: Craig Stuart Sapp
!!!EEV: 2024/03/31
!!!ONB: Some non-unicode characters
